**kern	**silbe
*ICvox	*
*G:	*
*M4/4	*
*clefG2	*
r;	.
=1	=1
1r	.
=2	=2
1r	.
=3	=3
1r	.
=4	=4
1r	.
=5	=5
1r	.
=6	=6
1r	.
=7	=7
1r	.
=8	=8
1r	.
=9	=9
1r	.
=10	=10
1r	.
=11	=11
1r	.
=12	=12
1r	.
=13	=13
1r	.
=14	=14
2dd	There
4.ff#	she
[8gg	goes
=15	=15
2.gg]	_
4r	.
=16	=16
4b	there
8dd	she
[8aa	goes
4aa]	_
8ff#	a-
[8gg	-gain
=17	=17
2.gg]	_
4r	.
=18	=18
1r	.
=19	=19
4b	ra-
4dd	-cing
4aa	through
[4ff#	my
=20	=20
8ff#]	_
[8gg	brain
2gg]	_
8r	.
8dd	and
=21	=21
8dd	I
8cc	_
8cc	just
8b	_
8b	can't
8g	_
8g	con-
8b	-tain
=22	=22
8cc	_
4.b	_
4r	.
4dd	this
=23	=23
8dd	feel-
8cc	_
8cc	-in
8b	_
4b	that
8g	re-
8b	-mains
=24	=24
8cc	_
8b	_
8cc	_
4.b	_
4r	.
=25	=25
1r	.
=26	=26
2dd	There
4.ff#	she
[8gg	blows
=27	=27
2.gg]	_
4r	.
=28	=28
4b	there
8dd	she
[8aa	blows
4aa]	_
8ff#	a-
[8gg	-gain
=29	=29
2.gg]	_
4r	.
=30	=30
1r	.
=31	=31
4b	puls-
4dd	-cing
4aa	through
[4ff#	my
=32	=32
8ff#]	_
[8gg	brain
2gg]	_
8r	.
8cc	and
=33	=33
8dd	I
8cc	_
8cc	just
8b	_
8b	can't
8g	_
8g	con-
8b	-tain
=34	=34
8cc	_
4.b	_
4r	.
4dd	this
=35	=35
8dd	feel-
8cc	_
8cc	-in
8b	_
4b	that
8g	re-
8b	-mains
=36	=36
8cc	_
8b	_
8cc	_
4.b	_
4r	.
=37	=37
1r	.
=38	=38
1r	.
=39	=39
1r	.
=40	=40
1r	.
=41	=41
1r	.
=42	=42
1r	.
=43	=43
1r	.
=44	=44
1r	.
=45	=45
1r	.
=46	=46
1r	.
=47	=47
1r	.
=48	=48
1r	.
=49	=49
2dd	_
4.ff#	_
[8gg	_
=50	=50
2.gg]	_
4r	.
=51	=51
4b	_
8dd	_
[8aa	_
4aa]	_
8ff#	_
[8gg	_
=52	=52
4.gg]	_
8dd	_
4dd	_
4ff#	_
=53	=53
4.gg	_
8r	.
4dd	_
4ff#	_
=54	=54
4.gg	_
8r	.
8dd	_
8cc	_
8cc	_
8b	_
=55	=55
4b	_
4dd	_
4aa	_
[4ff#	_
=56	=56
8ff#]	_
[8gg	_
2gg]	_
8r	.
8dd	_
=57	=57
8dd	_
8cc	_
8cc	_
8b	_
8b	_
8g	_
8g	_
8b	_
=58	=58
8cc	_
4.b	_
4r	.
4cc	_
=59	=59
8dd	_
8cc	_
8cc	_
8b	_
4b	_
8g	_
8b	_
=60	=60
8cc	_
8b	_
8cc	_
4.b	_
4r	.
=61	=61
1r	.
=62	=62
2dd	_
4.ff#	_
[8gg	_
=63	=63
2.gg]	_
4r	.
=64	=64
4b	_
8dd	_
[8aa	_
4aa]	_
8ff#	_
[8gg	_
=65	=65
2.gg]	_
4r	.
=66	=66
1r	.
=67	=67
4b	_
4dd	_
4aa	_
[4ff#	_
=68	=68
8ff#]	_
[8gg	_
2gg]	_
8r	.
8dd	_
=69	=69
8dd	_
8cc	_
8cc	_
8b	_
8b	_
8g	_
8g	_
8b	_
=70	=70
8cc	_
4.b	_
4r	.
4dd	_
=71	=71
8dd	_
8cc	_
8cc	_
8b	_
4b	_
8g	_
8b	_
=72	=72
8cc	_
8b	_
8cc	_
4.b	_
4r	.
=73	=73
1r	.
=74	=74
1r	.
=75	=75
1r	.
=76	=76
1r	.
=77	=77
1r	.
=78	=78
1r	.
=79	=79
1r	.
=80	=80
1r	.
r;	.
r;	.
*-	*-
!!!ENC: Nathaniel Condit-Schultz